lib/brands/icons/snapchat.svg

<svg xmlns="http://www.w3.org/2000/svg" fill="none" aria-hidden="true" viewBox="0 0 48 48"><g id="snapchat-Icon"><g id="snapchat"><path id="Vector" fill="white" d="M37.7296 31.573C32.7742 29.1734 31.9844 25.4686 31.9492 25.1938C31.9067 24.861 31.8585 24.5993 32.2256 24.2607C32.5796 23.9336 34.1502 22.9612 34.586 22.6569C35.3063 22.1531 35.6235 21.6502 35.3897 21.0319C35.2261 20.6042 34.828 20.4431 34.4086 20.4431C34.2762 20.4435 34.1444 20.4583 34.0153 20.4872C33.2239 20.659 32.4553 21.0556 32.0106 21.1627C31.9571 21.1765 31.9022 21.1839 31.847 21.1848C31.6099 21.1848 31.52 21.0793 31.5429 20.7939C31.5985 19.9286 31.7162 18.2398 31.5797 16.6622C31.3925 14.4917 30.6926 13.4162 29.8628 12.4651C29.4613 12.0038 27.5972 10.0222 23.9998 10.0222C20.4024 10.0222 18.5408 12.0038 18.1418 12.4594C17.3095 13.4105 16.6105 14.486 16.4249 16.6565C16.2883 18.2341 16.411 19.9221 16.4616 20.7882C16.478 21.0597 16.3946 21.1791 16.1575 21.1791C16.1023 21.1782 16.0474 21.1707 15.994 21.157C15.55 21.0499 14.7815 20.6532 13.9901 20.4815C13.861 20.4525 13.7291 20.4377 13.5968 20.4373C13.1758 20.4373 12.7792 20.6009 12.6157 21.0262C12.3819 21.6444 12.6975 22.1474 13.4202 22.6512C13.856 22.9554 15.4266 23.927 15.7806 24.255C16.1469 24.5936 16.0995 24.8553 16.0569 25.1881C16.0218 25.467 15.2312 29.1718 10.2766 31.5672C9.98634 31.7079 9.49252 32.0056 10.3633 32.4865C11.7303 33.2421 12.6402 33.1612 13.3475 33.6167C13.9476 34.0036 13.5927 34.8377 14.0293 35.1387C14.5657 35.5092 16.151 35.1125 18.199 35.7889C19.916 36.3548 20.9592 37.9537 24.0039 37.9537C27.0486 37.9537 28.1221 36.3475 29.8088 35.7889C31.8528 35.1125 33.4413 35.5092 33.9785 35.1387C34.4143 34.8377 34.0603 34.0036 34.6604 33.6167C35.3676 33.1612 36.2767 33.2421 37.6446 32.4865C38.5137 32.0113 38.0198 31.7136 37.7296 31.573Z"/><path id="Vector_2" fill="black" d="M39.8856 31.2906C39.6632 30.6854 39.2397 30.3615 38.7573 30.0933C38.6666 30.0401 38.5832 29.9976 38.5121 29.9649C38.3682 29.8905 38.221 29.8185 38.0746 29.7424C36.5711 28.9451 35.397 27.9391 34.5827 26.7467C34.3515 26.411 34.1509 26.0552 33.9834 25.6835C33.9139 25.4848 33.9172 25.3719 33.9671 25.2689C34.0165 25.1895 34.082 25.1213 34.1592 25.0685C34.4176 24.8976 34.6841 24.7242 34.8648 24.6073C35.1869 24.3987 35.442 24.2335 35.6063 24.1166C36.2236 23.6848 36.6553 23.2259 36.9251 22.7132C37.1134 22.3589 37.2231 21.9682 37.247 21.5677C37.2708 21.1672 37.2082 20.7663 37.0633 20.3922C36.6545 19.3159 35.6382 18.6477 34.4069 18.6477C34.1472 18.6475 33.8882 18.6749 33.6343 18.7295C33.5665 18.7442 33.4986 18.7598 33.4324 18.7769C33.4438 18.0409 33.4275 17.2639 33.3621 16.4993C33.1299 13.811 32.1888 12.4019 31.2077 11.2782C30.5794 10.5741 29.8394 9.97832 29.0174 9.51497C27.5286 8.66442 25.8402 8.2326 23.9998 8.2326C22.1594 8.2326 20.4793 8.66442 18.9888 9.51497C18.1648 9.97846 17.4233 10.5754 16.7944 11.2815C15.8133 12.4052 14.8723 13.8168 14.6401 16.5025C14.5747 17.2672 14.5583 18.0482 14.5689 18.7802C14.5027 18.763 14.4357 18.7475 14.3678 18.7328C14.1139 18.6782 13.8549 18.6507 13.5952 18.651C12.3631 18.651 11.3452 19.3192 10.938 20.3954C10.7925 20.7697 10.7292 21.1709 10.7525 21.5719C10.7758 21.9728 10.8851 22.364 11.0729 22.7189C11.3436 23.2317 11.7752 23.6905 12.3925 24.1223C12.556 24.2368 12.8119 24.402 13.1341 24.613C13.3082 24.7259 13.5625 24.8911 13.8119 25.0563C13.8991 25.1127 13.9733 25.1871 14.0293 25.2746C14.0817 25.3818 14.0833 25.4971 14.0056 25.7097C13.8404 26.0736 13.6432 26.422 13.4161 26.7508C12.6198 27.9162 11.4801 28.9042 10.0248 29.695C9.2538 30.1039 8.45256 30.3771 8.11408 31.2971C7.85899 31.9915 8.02578 32.7815 8.67413 33.4472C8.91208 33.6957 9.18806 33.9047 9.49172 34.0663C10.1235 34.4137 10.7954 34.6825 11.4924 34.867C11.6362 34.9041 11.7727 34.9652 11.8962 35.0477C12.1325 35.2546 12.099 35.5662 12.4138 36.0226C12.5718 36.2584 12.7726 36.4626 13.0057 36.6245C13.6663 37.0809 14.4087 37.1095 15.1952 37.1398C15.9057 37.1667 16.711 37.1978 17.6308 37.5012C18.0118 37.6272 18.4075 37.8709 18.8662 38.1555C19.9675 38.8327 21.4751 39.7593 23.9982 39.7593C26.5213 39.7593 28.0395 38.8278 29.149 38.1481C29.6044 37.8684 29.9977 37.6272 30.368 37.5045C31.2878 37.2003 32.0932 37.17 32.8036 37.143C33.5902 37.1128 34.3325 37.0841 34.9931 36.6278C35.2693 36.4352 35.4993 36.1838 35.6668 35.8917C35.8933 35.5065 35.8876 35.2375 36.1002 35.0494C36.216 34.9708 36.3443 34.9122 36.4795 34.876C37.186 34.691 37.867 34.4196 38.5071 34.068C38.8298 33.8948 39.1202 33.6674 39.3656 33.3957L39.3738 33.3859C39.9821 32.7349 40.135 31.9678 39.8856 31.2906ZM37.643 32.4961C36.2751 33.2518 35.366 33.1708 34.6588 33.6263C34.0578 34.0132 34.4135 34.8474 33.9769 35.1483C33.4405 35.5188 31.8552 35.1222 29.8072 35.7985C28.118 36.3571 27.0405 37.9633 24.0023 37.9633C20.9641 37.9633 19.9119 36.3604 18.195 35.7944C16.151 35.1181 14.5624 35.5147 14.0253 35.1442C13.5895 34.8433 13.9435 34.0091 13.3434 33.6222C12.6353 33.1667 11.7262 33.2477 10.3592 32.4961C9.48845 32.0152 9.98227 31.7175 10.2725 31.5768C15.2271 29.1773 16.0177 25.4725 16.0529 25.1977C16.0954 24.8649 16.1428 24.6032 15.7765 24.2646C15.4225 23.9375 13.8519 22.9651 13.4161 22.6608C12.695 22.157 12.3778 21.6541 12.6116 21.0358C12.7752 20.6081 13.1741 20.447 13.5927 20.447C13.725 20.4474 13.8569 20.4622 13.986 20.4911C14.7774 20.6629 15.546 21.0595 15.9899 21.1666C16.0434 21.1804 16.0983 21.1878 16.1534 21.1887C16.3905 21.1887 16.4739 21.0693 16.4576 20.7978C16.4069 19.9317 16.2843 18.2437 16.4208 16.6661C16.608 14.4956 17.3071 13.4201 18.1377 12.469C18.5367 12.0118 20.4114 10.0302 23.9966 10.0302C27.5817 10.0302 29.4613 12.0036 29.8603 12.4592C30.6918 13.4103 31.3917 14.4858 31.5773 16.6563C31.7138 18.2339 31.5961 19.9227 31.5405 20.788C31.5217 21.0734 31.6075 21.1789 31.8446 21.1789C31.8998 21.178 31.9547 21.1706 32.0081 21.1568C32.4529 21.0497 33.2214 20.653 34.0129 20.4813C34.142 20.4523 34.2738 20.4375 34.4061 20.4371C34.8272 20.4371 35.2237 20.6007 35.3872 21.026C35.6211 21.6443 35.3055 22.1472 34.5835 22.651C34.1478 22.9552 32.5772 23.9268 32.2232 24.2548C31.8561 24.5934 31.9043 24.8551 31.9468 25.1879C31.982 25.4668 32.7718 29.1716 37.7272 31.567C38.0199 31.7134 38.5137 32.0111 37.643 32.4961Z"/></g></g></svg>

<svg xmlns="http://www.w3.org/2000/svg" fill="none" aria-hidden="true" viewBox="0 0 48 48"><path fill="#fff" d="M37.73 31.573c-4.956-2.4-5.746-6.104-5.78-6.38-.043-.332-.091-.594.276-.932.354-.327 1.924-1.3 2.36-1.604.72-.504 1.038-1.007.804-1.625-.164-.428-.562-.589-.981-.589-.133 0-.265.015-.394.044-.791.172-1.56.569-2.004.676a.7.7 0 0 1-.164.022c-.237 0-.327-.106-.304-.391.056-.865.173-2.554.037-4.132-.188-2.17-.887-3.246-1.717-4.197-.402-.461-2.266-2.443-5.863-2.443-3.598 0-5.46 1.982-5.858 2.437-.832.952-1.532 2.027-1.717 4.198-.137 1.577-.014 3.265.037 4.131.016.272-.067.391-.305.391a.704.704 0 0 1-.163-.022c-.444-.107-1.213-.504-2.004-.675a1.82 1.82 0 0 0-.393-.045c-.421 0-.818.164-.981.59-.234.617.082 1.12.804 1.624.436.304 2.007 1.276 2.36 1.604.367.339.32.6.277.933-.035.279-.826 3.984-5.78 6.38-.29.14-.784.438.086.918 1.367.756 2.277.675 2.985 1.13.6.388.245 1.222.681 1.523.537.37 2.122-.027 4.17.65 1.717.566 2.76 2.165 5.805 2.165s4.118-1.607 5.805-2.165c2.044-.677 3.632-.28 4.17-.65.435-.301.081-1.135.681-1.522.708-.456 1.617-.375 2.985-1.13.869-.476.375-.773.085-.914Z"/><path fill="#000" d="M39.886 31.29c-.223-.605-.646-.928-1.129-1.197a2.803 2.803 0 0 0-.245-.128c-.144-.075-.291-.146-.437-.223-1.504-.797-2.678-1.803-3.492-2.995a6.8 6.8 0 0 1-.6-1.064c-.07-.198-.066-.311-.016-.414a.675.675 0 0 1 .192-.2c.259-.171.525-.345.706-.462.322-.208.577-.373.741-.49.618-.432 1.05-.891 1.32-1.404a2.796 2.796 0 0 0 .137-2.32c-.409-1.077-1.425-1.745-2.656-1.745a3.661 3.661 0 0 0-.975.129 22.821 22.821 0 0 0-.07-2.278c-.232-2.688-1.173-4.097-2.154-5.22a8.587 8.587 0 0 0-2.19-1.764c-1.49-.85-3.178-1.282-5.018-1.282-1.84 0-3.52.431-5.011 1.282a8.555 8.555 0 0 0-2.195 1.766c-.98 1.124-1.922 2.536-2.154 5.222a23.109 23.109 0 0 0-.071 2.277 3.655 3.655 0 0 0-.974-.13c-1.232.001-2.25.67-2.657 1.745a2.799 2.799 0 0 0 .135 2.324c.27.513.702.971 1.32 1.403.163.115.419.28.741.491.174.113.428.278.678.443a.73.73 0 0 1 .217.219c.053.107.054.222-.023.435a6.719 6.719 0 0 1-.59 1.04c-.796 1.166-1.936 2.154-3.391 2.945-.771.409-1.572.682-1.91 1.602-.256.694-.09 1.485.56 2.15.237.249.513.458.817.62a8.855 8.855 0 0 0 2 .8c.144.037.28.098.404.18.236.208.203.52.518.976.158.235.359.44.592.601.66.457 1.403.485 2.19.516.71.027 1.515.058 2.435.361.38.126.776.37 1.235.655 1.102.677 2.61 1.603 5.132 1.603 2.523 0 4.041-.931 5.151-1.61.455-.28.849-.522 1.219-.645.92-.304 1.725-.334 2.436-.361.786-.03 1.529-.059 2.19-.515a2.28 2.28 0 0 0 .673-.736c.226-.386.22-.655.433-.843.116-.078.244-.137.38-.173a8.888 8.888 0 0 0 2.027-.808c.323-.173.613-.4.859-.672l.008-.01c.608-.651.761-1.418.512-2.095Zm-2.243 1.206c-1.368.756-2.277.675-2.984 1.13-.601.387-.245 1.221-.682 1.522-.536.37-2.122-.026-4.17.65-1.689.56-2.766 2.165-5.805 2.165-3.038 0-4.09-1.603-5.807-2.169-2.044-.676-3.633-.28-4.17-.65-.436-.3-.082-1.135-.682-1.522-.708-.455-1.617-.374-2.984-1.126-.87-.48-.377-.779-.086-.92 4.954-2.399 5.745-6.104 5.78-6.378.042-.333.09-.595-.277-.933-.354-.328-1.924-1.3-2.36-1.604-.721-.504-1.038-1.007-.804-1.625.163-.428.562-.589.98-.589.133 0 .265.015.394.044.791.172 1.56.569 2.004.676a.7.7 0 0 0 .163.022c.238 0 .32-.12.305-.391-.051-.866-.174-2.554-.037-4.132.187-2.17.886-3.246 1.717-4.197.399-.457 2.273-2.439 5.859-2.439 3.585 0 5.464 1.974 5.863 2.43.832.95 1.532 2.026 1.717 4.196.137 1.578.02 3.267-.037 4.132-.018.285.068.39.305.39a.7.7 0 0 0 .163-.021c.445-.107 1.213-.504 2.005-.676.129-.029.26-.044.393-.044.421 0 .818.164.981.589.234.618-.081 1.121-.803 1.625-.436.304-2.007 1.276-2.36 1.604-.368.338-.32.6-.277.933.035.279.825 3.984 5.78 6.379.293.146.787.444-.084.93Z"/></svg>
